X: 406
T: Give Me Your Hand
N:"Boldly"
N:"collected by F.O'Neill"
N:Irish title: ta.bair .dom do la.m
B:O'Neill's 406
Z:Transcribed by henrik.norbeck@mailbox.swipnet.se
M:6/8
L:1/8
K:G
D | (EG).G ">"G2 D | (EG).G ">"G2 D | (EG).G (GA).B | ">"Bed B2 (A/G/) |
">".A(Ae) .B(Bd) | .A(A/B/A/G/) E2 D | (">"EG).G ">"g2 G | (">"EG).G ">"g2 D |
(EG).G (ga).b | .d(d/b/a/b/) ">"g2 G | (EG).G (GA).B | ">"Bed B2 (A/G/) |
">".A(Ae) .B(Bd) | .A(AB/d/) e2 (d/B/) | d(de) g2 (e/d/) | .e(eg) a2 (g/e/) |
.g.g(d/e/) .g.g(d/e/) | .g.g.a b3 | .b.b.b b2 (a/g/) | (a/g/a/b/)(a/b/) a2 (g/f/) |
.e.e(g/e/) .d.d(e/d/) | .B.B(d/B/) A2 G | GG(B/d/) | =f2 (e/d/) |
eeg e2 (d/B/) | .d(dg) .B(Bd) | A(c/B/A/G/) HG2 ||


